X: 2089
T: MISS FORBES
C:
Q: "Reel."
R: Reel.
%R: reel
B: James Kerr "Merry Melodies" v.2 p.12 #089
Z: 2016 John Chambers <jc:trillian.mit.edu>
M: C
L: 1/8
K: C
uF |\
EGGc AcGc | EGGE FDDF |\
EGGc Bcdf | ecgc Gcc ::\
a |\
gcec gcfa |
gcec Bdfa |\
[1 gcac gcec | fdBg ecc :|\
[2 ecBc Gcec | fdgd ecc |]

%%sep 1 1 500
%%sep 1 1 500

